antibot/app/images/dist/oport-icon4.svg

<svg width="40" height="40" viewBox="0 0 40 40" fill="none" xmlns="http://www.w3.org/2000/svg">
<path d="M5.56323 28.3334C7.02577 30.8679 9.13007 32.9725 11.6644 34.4354C14.1987 35.8983 17.0737 36.6679 19.9999 36.6667C22.9261 36.6679 25.8011 35.8983 28.3354 34.4354C30.8697 32.9725 32.974 30.8679 34.4366 28.3334M5.56323 11.6667C7.02577 9.13217 9.13007 7.02756 11.6644 5.56466C14.1987 4.10177 17.0737 3.33219 19.9999 3.33338C22.9261 3.33219 25.8011 4.10177 28.3354 5.56466C30.8697 7.02756 32.974 9.13217 34.4366 11.6667" stroke="#0085FF" stroke-width="2.5" stroke-linecap="round" stroke-linejoin="round"/>
<path d="M21.6666 36.5834C21.6666 36.5834 24.0133 33.4951 25.4916 28.3334M21.6666 3.41675C21.6666 3.41675 24.0133 6.50341 25.4916 11.6667M18.3333 36.5834C18.3333 36.5834 15.9866 33.4967 14.5083 28.3334M18.3333 3.41675C18.3333 3.41675 15.9866 6.50341 14.5083 11.6667M15 16.6667L17.5 25.0001L20 16.6667L22.5 25.0001L25 16.6667M1.66663 16.6667L4.16663 25.0001L6.66663 16.6667L9.16663 25.0001L11.6666 16.6667M28.3333 16.6667L30.8333 25.0001L33.3333 16.6667L35.8333 25.0001L38.3333 16.6667" stroke="#0085FF" stroke-width="2.5" stroke-linecap="round" stroke-linejoin="round"/>
</svg>

<svg width="40" height="40" fill="none" xmlns="http://www.w3.org/2000/svg"><path d="M5.563 28.333A16.66 16.66 0 0 0 20 36.667a16.66 16.66 0 0 0 14.437-8.334M5.563 11.667A16.66 16.66 0 0 1 20 3.333a16.66 16.66 0 0 1 14.437 8.334" stroke="#0085FF" stroke-width="2.5" stroke-linecap="round" stroke-linejoin="round"/><path d="M21.667 36.583s2.346-3.088 3.825-8.25M21.667 3.417s2.346 3.086 3.825 8.25m-7.159 24.916s-2.346-3.086-3.825-8.25m3.825-24.916s-2.346 3.086-3.825 8.25m.492 5L17.5 25l2.5-8.333L22.5 25l2.5-8.333m-23.333 0L4.167 25l2.5-8.333L9.167 25l2.5-8.333m16.666 0 2.5 8.333 2.5-8.333 2.5 8.333 2.5-8.333" stroke="#0085FF" stroke-width="2.5" stroke-linecap="round" stroke-linejoin="round"/></svg>
